!!!OTL: Symphony No. 5 in E minor, Movement 2
!!!COM: Tchaikovsky
!!!OMD: Andante cantibile, con alcuna licenza
**kern	**dynam
*staff2	*staff2
*Iflt	*Iflt
*I"Flute 2	*I"Flute 2
*clefG2	*clefG2
*k[f#c#]	*k[f#c#]
*M12/8	*M12/8
=1-	=1-
1.r	.
=2	=2
1.r	.
=3	=3
1.r	.
=4	=4
1.r	.
=5	=5
1.r	.
=6	=6
1.r	.
=7	=7
1.r	.
=8	=8
1.r	.
=9	=9
1.r	.
=10	=10
1.r	.
=11	=11
1.r	.
=12	=12
1.r	.
=13	=13
!!LO:TX:i:Z=10:t=animando
1.r	.
=14	=14
1.r	.
=15	=15
!!LO:TX:i:Z=10:t=riten.
1.r	.
=16	=16
!!LO:REH:t=A
!!LO:TX:i:Z=10:t=sostenuto
1.r	.
=17	=17
1.r	.
=18	=18
1.r	.
=19	=19
1.r	.
=20	=20
1.r	.
=21	=21
1.r	.
=22	=22
1.r	.
=23	=23
1.r	.
=24	=24
!!LO:TX:Z=10:b:t=Con moto
1.r	.
!!LO:MREST:break
=25	=25
1.r	.
=26	=26
1.r	.
=27	=27
1.r	.
=28	=28
!!LO:TX:i:Z=10:t=sostenuto
1.r	.
=29	=29
1.r	.
=30	=30
1.r	.
=31	=31
1.r	.
=32	=32
1.r	.
=33	=33
!!LO:TX:b:Z=10:t=Tempo I
1.r	.
=34	=34
1.r	.
=35	=35
!!LO:TX:i:Z=10:t=animando
1.r	.
=36	=36
!	!
4r	.
8r	.
8r	.
!!LO:TX:i:Z=10:t=riten.
(8f#/L	f
8a/J	.
8dd\L	.
8ff#\	.
8aa\J	.
8ddd\L	>
8fff#\	)
8aaa\J)	]
=37	]37
!!LO:TX:i:Z=10:t=sostenuto
4r	.
8r	.
([4ee\	mp
16ee/LL]	<
16e/JJ)	(
(8.e/L	(
8.a/J)	(
8.cc#~\L	(
8.ee~\J	[
=38	=38
([4aa^\	f
16aa\LL]	.
16a\JJ	.
([4.a/)	.
8a\L]	.
8b\	.
8cc#\J	.
8dd\)	.
8r	.
8r	.
=39	=39
!!LO:TX:Z=10:b:t=Poco pi&ugrave; animato
1.r	.
=40	=40
1.r	.
=41	=41
1.r	.
=42	=42
1.r	.
=43	=43
!!LO:TX:Z=10:i:t=riten.
1.r	.
=44	=44
!!LO:TX:Z=10:b:t=Tempo I
1.r	.
=45	=45
!!LO:REH:t=B
2.r	.
4.g/	pp
(4f#/	<
8e/	(
=46	=46
!!LO:TX:i:Z=10:t=animando
8d/)	[
8r	.
8r	.
4r	.
8r	.
(8.f#/L	mf
8.g#/J	.
8.a/L	.
8.f#/J	.
=47	=47
8e#/)	.
8r	.
8r	.
4r	.
8r	.
(8.g#/L	ff
8.a#/J	.
8b\)	.
8r	.
8r	.
=48	=48
!!LO:TX:i:Z=10:t=riten.
8.en^/L	f
8.f#^/J	.
4.gn^/	.
2.r	.
=49	=49
2.r	.
(4.g/	pp
4f#/	<
8e/	(
=50	=50
!!LO:TX:i:Z=10:t=animando
8d/)	[
8r	.
8r	.
4r	.
8r	.
(8.f#/L	mp
8.g#/J	<
8.a/L	(
8.f#/J	[
=51	=51
8e#/)	f
8r	.
8r	.
4r	.
8r	.
(8.g#/L	mf
8.a#/J	.
8.b\L	.
8.dd\J)	.
=52	=52
!!LO:REH:t=C
!!LO:TX:b:Z=10:t=Poco pi&ugrave; mosso
!	!
(4.ff#\	.
4ggn\)	.
8gg\	.
(4.gg\	.
4gg#\)	.
8gg#\	.
=53	=53
(8.gg#\L	.
8.aa\J)	.
8.aa~\L	.
8.aa~\J	.
(8.aa\L	.
8.aa#\J)	.
8.aa#~\L	.
8.aa#~\J	.
=54	=54
(4.aa#\	.
4bb\)	.
8bb\	.
(4.bb\	.
4cccn\)	.
8ccc\	.
=55	=55
(8.cccn\L	.
8.ccc#\J)	.
8.ccc#~\L	.
8.ccc#~\J	.
(8.ccc#\L	.
8.ddd\J)	.
8.ddd~\L	.
8.ddd~\J	.
=56	=56
!!LO:TX:b:Z=10:t=Tempo I
4.ddd\	fff
(4ff#\	.
8bb\)	.
(2.aa\	> ]
=57	=57
!!LO:TX:Z=10:i:t=animando
4.bb\)	ff
(4dd\	.
8gg\)	.
(2.ff#\	.
=58	=58
8gg\)	.
8r	.
8r	.
4r	.
8r	.
2.r	.
!!LO:TX:Z=10:i:t=riten.
=59	=59
!!LO:TX:Z=10:b:t=Pi&ugrave; animato
4r	.
8r	.
4.d/	p
4.d/	>
4.a/	]
=60	=60
!!LO:TX:Z=10:i:t=riten.
4.a/	<
4.d/	[
4.d/	>
4.a/	]
!!LO:MREST:break
=61	=61
!!LO:TX:Z=10:b:t=Poco meno
8a/L	p
8a/	.
8a/J	.
8a/L	.
8a/	.
8a/J	.
8a/	.
8r	.
8r	.
4r	.
8r	.
=62	=62
8b\L	.
8b\	.
8b\J	.
8b\L	.
8b\	.
8b\J	.
8b\	.
8r	.
8r	.
4r	.
8r	.
=63	=63
1.r	.
=64	=64
1.r	.
=65	=65
1.r	.
=66||	=66||
*M4/4	*M4/4
*met(c)	*met(c)
!!LO:TX:Z=10:b:t=Moderato con anima
1r	.
=67	=67
1r	.
=68	=68
1r	.
=69	=69
1r	.
=70	=70
1r	.
=71	=71
1r	.
=72	=72
1r	.
=73	=73
1r	.
=74	=74
1r	.
!!LO:MREST:break
=75	=75
!!LO:REH:t=D
1r	.
=76	=76
1r	.
=77	=77
1r	.
=78	=78
4.ddd#\	mf
(8eee\	<
8ggg#\L	[
8fff#\)	>
8eee~\	)
8ddd#~\J	)
=79	=79
1r	)
=80	=80
1r	)
=81	=81
1r	]
=82	=82
4.fffn\	mf
(8ggg-\	.
8bbb-\L	.
8aaa-\)	>
8ggg-~\	)
8fff~\J	]
=83	=83
!!LO:REH:t=E
1r	.
=84	=84
1r	.
=85	=85
1r	.
=86	=86
1r	.
=87	=87
1r	.
=88	=88
4.bb-\	mf
(8ccc-\	.
8eee-\L	.
8ddd-\)	>
8ccc-~\	)
8bb-~\J	]
=89	=89
1r	.
=90	=90
4.ddd#\	f
(8eee\	.
8ggg#\L	.
8fff#\)	>
8eee~\	)
8ddd#~\J	]
=91	=91
!!LO:REH:t=F
1r	.
=92	=92
1r	.
=93	=93
2r	.
(2dd#\	f
=94	=94
8ff#\)	.
8r	.
4r	.
2dd#\	.
=95	=95
4.g#/	f
!	!
(8dd#\	.
8ff#\L	.
8ee\	.
8dd#\	.
8cc#\J)	.
=96	=96
!!LO:TX:i:Z=10:t=stringendo
(8bb\L	.
8aa\	.
8gg#\	.
8ff#\J)	.
(8eee\L	.
8ddd#\	.
8ccc#\	.
8bb#\J)	.
=97	=97
(8aaa\L	fff
8ggg#\	.
8fff#\	.
8eee\J)	.
(8ddd#\L	.
8ccc#\	.
8bbn\	.
8aa\J)	.
=98	=98
(8gg#\L	.
8ff#\	.
8ee\	.
8dd#\J)	.
(8cc#/L	.
8b/	.
8a/	.
8g#/J)	.
=99	=99
!!LO:TX:b:Z=10:t=Tempo precedente
4.a/	fff
16a/LL	.
16a/JJ	.
4.b\	.
16a/LL	.
16g#/JJ	.
=100	=100
8a/L	.
8a/J	.
4r	.
2r	.
=101	=101
4.a/	.
16a/LL	.
16a/JJ	.
4.b\	.
16a/LL	.
16g#/JJ	.
=102	=102
8a/L	.
8a/J	.
4r	.
4r	.
4b\	.
=103	=103
4a/	.
4gn/	.
4a/	.
4g/	.
=104	=104
8a/L	.
8a/J	.
4r	.
4r	.
4b\	.
=105	=105
4a/	.
4g/	.
4a/	.
4g/	.
=106	=106
8a/L	.
8a/J	.
4r	.
4r	.
8a/	.
8r	.
=107	=107
4r	.
8a/	.
8r	.
4r	.
8a/	.
8r;	.
=108||	=108||
*M12/8	*M12/8
*	*
!!LO:TX:b:Z=10:t=Tempo I
1r	.
=109	=109
1r	.
=110	=110
1r	.
=111	=111
1r	.
=112	=112
1r	.
=113	=113
1r	.
=114	=114
1r	.
=115	=115
1r	.
=116	=116
!!LO:REH:t=G
!!LO:TX:i:Z=10:t=animando
1r	.
=117	=117
1r	.
=118	=118
1r	.
!!LO:TX:Z=10:i:t=riten.
=119	=119
*	*
!!LO:TZ:Z=10:i:t=sostenuto
1.r	.
=120	=120
*M4/4	*M4/4
*met(c)	*met(c)
(16b\LL	mf
16cc#\)	<
16dd#~\	(
16ee~\JJ	(
16ff#~\LL	(
16gg~\	(
16gg#~\	(
16aa~\JJ	[
(16aa\LL	.
16ggn\	.
16ff#\	.
16aa\JJ	.
8gg\)	.
16r	.
(16b\	mf
=121	=121
16a\LL	.
16b\)	.
16cc#~\	<
16ddn~\JJ	(
16ee~\LL	(
16ffn~\	(
16ff#~\	(
16gg~\JJ	[
(16gg\LL	.
16ff#\	.
16ee#\	.
16gg\JJ	.
8ff#\)	.
8r	.
=122	=122
!!LO:TX:i:Z=10:t=animando
16r	.
(16gg#\LL	f
16aa\	.
16gg#\JJ)	.
16r	.
(16aa\LL	.
16bb\	.
16aa\JJ)	.
16r	.
(16bb\LL	.
16ccc#\	.
16bb\JJ)	.
16r	.
(16ccc#\LL	.
16ddd\	.
16ccc#\JJ)	.
=123	=123
!!LO:TX:i:Z=10:t=sostenuto
16r	.
(16ddd\LL	.
16eee\	.
[16ddd\JJ	.
16ddd\LL])	.
16ccc#\	.
16bb\	.
16bb-\JJ	>
(16aa\LL	)
16gg\)	)
16ff#\	)
16ee\JJ	)
(16dd\LL	)
16cc#\)	)
16bn\	)
16a\JJ	]
=124	=124
!!LO:REH:t=H
(16b\LL	mf
16cc#\)	.
16dd~\	<
16ee~\JJ	(
16ff#~\LL	(
16gg~\	(
16gg#~\	(
16aa~\JJ	[
(16aa\LL	.
16ggn\	.
16ff#\	.
16aa\JJ	.
8gg\)	.
16r	.
(16b\	mf
=125	=125
16a\LL	<
16b\)	(
16ccn~\	(
16dd~\JJ	(
16ee~\LL	(
16ffn~\	(
16ff#~\	(
(16gg~\JJ	[
16gg\LL	.
16ff#\	.
16ee#\	.
16gg\JJ	.
8ff#\)	.
8r	.
=126	=126
!!LO:TX:i:Z=20:t=animando
16r	.
(16gg#\LL	mf
16aa\	.
16gg#\JJ)	.
16r	.
!	!
(16aa\LL	.
16bb\	.
16aa\JJ)	.
16r	.
(16bb\LL	.
16ccc#\	.
16bb\JJ)	.
16r	.
(16ccc#\LL	.
16ddd\	.
16ccc#\JJ)	.
=127	=127
16r	.
(16ddd\LL	f
16eee\	.
16ddd\JJ)	.
16r	.
(16ddd\LL	.
16eee\	.
16ddd\JJ)	.
16r	.
!!LO:TX:i:Z=10:t=riten.
(16dd\LL	.
16b\	.
16cc#\JJ)	.
!LO:TX:i:Y=20:t=cantabile	!
(12dd\L	f
12cc#\)	.
!	!
12b~\J	.
=128	=128
!!LO:TX:Z=20:b:t=Pi&ugrave; mosso
*M12/8	*M12/8
(4.dd^\	.
2.cc#\)	.
(8a\L	<
8b\)	(
8cc#~\J	[
=129	=129
(4.ee\	>
2.dd\)	]
8dd~\L	<
8ee~\	(
8ff#~\J	[
=130	=130
4.gg\	f
!LO:TX:i:Y=20:t=cresc.	!
4gg\	.
8gg\	.
!	!
[4.gg\	.
4gg\]	.
8gg\	.
=131	=131
(8.gg\L	.
8.ff#\J)	.
8.bb~\L	ff
8.aa~\J	.
!	!
(8gg\L	.
8ff#\)	.
8ee~\J	.
8dd~\L	.
8cc#~\	.
8b~\J	.
=132	=132
(4.dd^\	f
2.cc#\)	.
(8a\L	<
8b\)	(
8cc#~\J	[
=133	=133
(4.ee\	>
2.dd\)	]
8dd~\L	<
8ee~\	(
8ff#~\J	[
=134	=134
!!LO:TX:b:Z=10:t=Un poco pi&ugrave; animato
4.gg#\	f
4gg#\	.
8gg#\	.
4.gg#\	.
8dd~\L	.
8ee~\	.
8ff#~\J	.
=135	=135
4.gg#\	.
4gg#\	.
8gg#\	.
4.gg#\	.
8gg#~\L	ff
8aa~\	.
8bb~\J	.
=136	=136
4.bb\	.
4bb\	.
8bb\	.
4.bb\	.
8gg#~\L	.
8aa~\	.
8bb~\J	.
=137	=137
4.bb\	.
4bb\	.
8bb\	.
8bb\	.
4bb\	.
4bb\	.
[8bb\	.
=138	=138
!!LO:REH:t=I
8bb\]	.
4bb\	.
4bb\	.
[8bb\	.
8bb\]	.
4bb\	.
4bb\	.
[8bb\	.
=139	=139
8bb\]	.
4bb\	.
4bb\	.
[8bb\	.
8bb\]	.
4bb\	.
4bb\	.
[8bb\	.
=140	=140
8bb\]	.
!!LO:TX:i:Z=10:t=riten.
4gg\	.
4ee\	.
[8dd\	.
8dd\]	.
4cc#\	.
4b\	.
(8a/	.
=141	=141
8a#\L)	.
8b\	.
8cc#\J	.
8dd\L	.
8dd#\	.
8ee\J	.
8ff#\L	.
8gg\	.
8aan\J	.
8aa#\L	.
8bb\	.
8ccc#\J	.
=142	=142
!!LO:TX:b:Z=40:t=Andante mosso
*rscale:3/2	*
*	*
4ddd\	fff
!	!
(6ff#\	.
12bb\)	.
[4aa\	.
6aa\]	.
12aa\	.
*	*
=143	=143
8bb\L	.
8ccc#\J	.
8ddd\L	.
8bb\J	.
[4fff#\	.
12fff#\]	.
12r	.
12r	.
!	!
=144	=144
!!LO:TX:i:Z=10:t=animando
8bb\L	.
8ccc#\J	.
8ddd\L	.
8bb\J	.
4fff#\	.
(8eee\L	.
8ddd\J)	.
=145	=145
4ddd\	.
(8ccc#\L	.
8bb\J)	.
(12ee\L	.
12gg\)	.
12bb~\J	.
(6bb\	.
12aa\)	.
!!LO:TX:i:Z=10:t=riten.
=146	=146
4ddd\	.
(6ff#\	.
12bb\)	.
[4aa\	.
6aa\]	.
12aa\	.
=147	=147
!!LO:TX:i:Z=20:t=animando un poco
8bb\L	.
8ccc#\J	.
8ddd\L	.
8bb\J	.
[4fff#\	.
12fff#\]	.
12r	.
12r	.
!	!
=148	=148
*	*
!	!
8bb\L	.
8ccc#\J	.
8ddd\L	.
8bb\J	.
4fff#\	.
6fff#\	.
12fff#\	.
*rscale:1	*
=149	=149
*	*
(4.ff#\	.
4gg\)	.
8gg\	.
(4.gg\	.
4gg#\)	.
8gg#\	.
=150	=150
(8.gg#\L	.
8.aa\J)	.
8.aa\L	.
8.aa\J	.
(8.aa\L	.
8.aa#\J)	.
8.aa#\L	.
8.aa#\J	.
=151	=151
!!LO:REH:t=K
!LO:TX:i:Y=20:t=cresc.	!
(4.aa#\	.
4bb\)	.
8bb\	.
(4.bb\	.
4cccn\)	.
8ccc\	.
=152	=152
(8.cccn\L	.
8.ccc#\J)	.
8.ccc#\L	.
8.ccc#\J	.
(8.ccc#\L	.
8.ddd\J)	.
8.ddd\L	.
8.ddd\J	.
=153	=153
!!LO:TX:Z=10:b:t=Molto pi&ugrave; andante
*M4/4	*M4/4
*met(c)	*met(c)
4ddd\	ffff
(8ff#\L	.
8bb\J)	.
2aa\	> ]
=154	=154
4bb\	ff
!!LO:TX:i:Z=10:t=animando
(8ddd\L	.
8ggg\J)	.
2fff#\	> ]
=155	=155
*rscale:3/2	*
*	*
4ggg\	f
!	!
(6bb\	.
12ccc#\)	.
!!LO:TX:i:Z=10:t=riten.
[2ddd\	> ]
*	*
=156	=156
!!LO:TX:b:Z=10:t=Pi&ugrave; animato
4ddd\]	mf
4d/	< [
4d/	> ]
4a/	.
=157	=157
!!LO:TX:i:Z=10:t=riten.
4a/	.
4d/	p < [
4d/	>
4a/	]
*rscale:1	*
=158||	=158||
*M4/4	*M4/4
*met(c)	*met(c)
!	!
!!LO:TX:b:Z=10:t=Allegro non troppo
8b\	fff
8r	.
4r	.
2r	.
=159	=159
1r	.
=160	=160
1r	.
=161	=161
1r	.
=162	=162
1r	.
=163	=163
8r	.
(8b\L	.
8ffn\	.
8bb\J)	.
(8b\L	.
8ff\	.
8bb\	.
8ddd\J)	.
=164	=164
12ddd\L	fff
12ddd\	.
12ddd\J	.
12ddd\L	.
12ddd\	.
12ddd\J	.
8ddd^\L	.
8ddd^\J	.
8ddd^\L	.
8ddd^\J	.
=165	=165
8ee^\L	.
8ee^\J	.
4r	.
2r	.
!!LO:TX:i:Z=10:t=riten.
=166	=166
1r	.
=167	=167
1r	.
=168	=168
1r	.
=169	=169
1r	.
=170||	=170||
*M12/8	*M12/8
!!LO:TX:b:Z=20:t=Tempo I
1.r	.
=171	=171
1.r	.
=172	=172
1.r	.
=173	=173
2.r	.
8b-\L	pp
8b-\	<
8b-\J	(
8b-\L	(
8b-\	(
8b-\J	[
=174	=174
8a/L	>
8a/	)
8a/J	]
4r	.
8r	.
8b-\L	<
8b-\	(
8b-\J	(
8b-\L	(
8b-\	(
8b-\J	[
=175	=175
8a/	.
8r	.
8r	.
4r	.
8r	.
8b-\L	<
8b-\	(
8b-\J	(
8b-\L	(
8b-\	(
8b-\J	[
=176	=176
8a/L	>
8a/	)
8a/J	]
4r	.
8r	.
8b-\L	<
8b-\	(
8b-\J	(
8b-\L	(
8b-\	(
8b-\J	[
=177	=177
8a/	.
8r	.
8r	.
4r	.
8r	.
2.r	.
=178	=178
1.r	.
=179	=179
1.r	.
=180	=180
1.r	.
=181	=181
1.r	.
=182	=182
*	*
*	*
1r	.
!	!
!!LO:TX:i:Z=10:t=riten. molto
=183	=183
*	*
1.r	.
=184	=184
1.r;	.
==	==
*-	*-
!!muse2ps: =z21
